public/asset/logo-club/NBA/utah-jazz.svg

<svg width="135" height="59" viewBox="0 0 135 59" fill="none" xmlns="http://www.w3.org/2000/svg">
<path d="M113.554 51.4L127.554 19.4H62.8544L60.1545 25.6L58.2544 19.4H45.2544C45.2544 19.4 36.6544 38.9 34.2544 44.5C34.5544 43.3 34.6545 42.2 34.6545 41V40.5C35.5545 38.3 43.1544 21 44.7544 17.5H80.2544L87.8544 0H45.6545L31.7544 31.7C26.6544 23.7 15.9545 21.3 7.95446 26.5C-0.0455418 31.6 -2.44555 42.3 2.75445 50.3C5.95445 55.3 11.3544 58.2 17.2544 58.3C22.8544 58.3 28.0544 55.6 31.3544 51.1L28.4545 57.9H35.5544L39.7544 48.4H47.6545L50.5544 57.9H125.154L127.954 51.4H113.554ZM42.4545 41.8L44.3544 37.5L45.6545 41.8H42.4545ZM67.2544 49.3L60.1545 25.9H77.5544C72.3544 37.6 69.1544 44.8 67.2544 49.3ZM94.0544 51.4H85.8544L96.9545 25.9H105.154C99.1545 39.6 95.8544 47.2 94.0544 51.4Z" fill="white"/>
<path d="M1.0542 41.9001C1.2542 46.0001 2.95422 49.9001 5.95422 52.8001C9.15422 50.1001 11.0542 46.1001 11.2542 41.9001H1.0542Z" fill="#0D2240"/>
<path d="M12.6542 41.9001C12.4542 46.4001 10.4542 50.7001 7.0542 53.7001C9.7542 55.9001 13.1542 57.2 16.5542 57.3V41.8H12.6542V41.9001Z" fill="#FFA400"/>
<path d="M1.0542 40.5H11.2542C11.0542 36.2 9.15422 32.3 5.95422 29.5C2.95422 32.3 1.2542 36.3 1.0542 40.5Z" fill="#0D2240"/>
<path d="M7.0542 28.5001C10.4542 31.5001 12.5542 35.9001 12.6542 40.5001H16.5542V24.9001C13.0542 25.0001 9.7542 26.3001 7.0542 28.5001Z" fill="#FFA400"/>
<path d="M33.4544 41.9001H23.2544C23.4544 46.1001 25.3544 50.0001 28.5544 52.8001C31.5544 49.9001 33.2544 46.0001 33.4544 41.9001Z" fill="#0D2240"/>
<path d="M21.8546 41.9001H17.9546V57.3001C21.4546 57.2001 24.8546 55.9001 27.4546 53.7001C24.0546 50.7001 22.0546 46.4001 21.8546 41.9001Z" fill="#2B5134"/>
<path d="M27.5542 28.5001C24.8542 26.3001 21.4542 25 18.0542 24.8V40.4001H21.9542C22.0542 35.9001 24.0542 31.5001 27.5542 28.5001Z" fill="#2B5134"/>
<path d="M46.2543 1.1001L31.8542 34.1001C30.9542 32.4001 29.8543 30.8001 28.4543 29.4001C25.2543 32.2001 23.3543 36.2001 23.1543 40.4001H33.3542L43.7543 16.5001H74.2543L80.9543 1.1001H46.2543Z" fill="#0D2240"/>
<path d="M79.4542 16.5001L86.1542 1.1001H83.3542L76.5542 16.5001H79.4542Z" fill="#2B5134"/>
<path d="M51.2545 56.9H63.3545L52.4545 20.5H45.8545L29.8545 56.9H34.6545C34.6545 56.9 36.4545 52.8 38.8545 47.4H48.2545L51.2545 56.9ZM40.8545 42.9C42.0545 40.2 43.2545 37.3 44.4545 34.6L46.9545 42.9H40.8545Z" fill="#0D2240"/>
<path d="M64.4542 53.2L66.1542 49.4L57.3542 20.5H54.5542L64.4542 53.2Z" fill="#2B5134"/>
<path d="M106.854 52.4L120.854 20.5H100.454L98.4544 24.9H106.754C102.454 34.6 92.7544 56.8 92.7544 56.8H124.354L126.354 52.4H106.854Z" fill="#0D2240"/>
<path d="M85.1544 50.4L98.2544 20.5H95.3544L82.2544 50.4H85.1544Z" fill="#2B5134"/>
<path d="M112.855 50.4L125.955 20.5H123.055L109.955 50.4H112.855Z" fill="#2B5134"/>
<path d="M93.1546 20.5H63.4546L61.4546 24.9H79.0546C74.7546 34.6 65.0546 56.8 65.0546 56.8H90.6546L92.5546 52.4H79.1546L93.1546 20.5Z" fill="#0D2240"/>
<path d="M91.5543 14.2H87.8543L93.5543 1.19995H90.7543L84.7543 14.7C84.2543 15.7 84.7543 16.6 85.8543 16.6H91.3543C92.5543 16.5 93.5544 15.8 94.1544 14.7L100.154 1.19995H97.3543L91.5543 14.2Z" fill="#0D2240"/>
<path d="M112.354 1.1001H102.654L101.554 3.50006H105.354L99.6543 16.5001H102.354L108.154 3.50006H111.354L112.354 1.1001Z" fill="#0D2240"/>
<path d="M116.254 5.00006L114.554 11.7001H111.954L116.254 5.00006ZM119.354 1.1001H116.554L106.154 16.5001H108.754L110.354 14.1001H114.054L113.554 16.5001H116.354L119.354 1.1001Z" fill="#0D2240"/>
<path d="M131.755 1.1001L128.855 7.6001H125.155L128.055 1.1001H125.255L118.455 16.5001H121.155L124.055 10.0001H127.855L124.955 16.5001H127.755L134.555 1.1001H131.755Z" fill="#0D2240"/>
</svg>

<?xml version="1.0" encoding="UTF-8"?>
<svg id="Calque_1" xmlns="http://www.w3.org/2000/svg" version="1.1" viewBox="0 0 135 59">
  <!-- Generator: Adobe Illustrator 30.2.1, SVG Export Plug-In . SVG Version: 2.1.1 Build 1)  -->
  <defs>
    <style>
      .st0 {
        fill: #0d2240;
      }

      .st1 {
        fill: #2b5134;
      }

      .st2 {
        fill: #fff;
      }

      .st3 {
        fill: #ffa400;
      }
    </style>
  </defs>
  <path class="st2" d="M113.55,51.4l14-32H62.85l-2.7,6.2-1.9-6.2h-13s-8.6,19.5-11,25.1c.3-1.2.4-2.3.4-3.5v-.5c.9-2.2,8.5-19.5,10.1-23h35.5L87.85,0h-42.2l-13.9,31.7c-5.1-8-15.8-10.4-23.8-5.2C-.05,31.6-2.45,42.3,2.75,50.3c3.2,5,8.6,7.9,14.5,8,5.6,0,10.8-2.7,14.1-7.2l-2.9,6.8h7.1l4.2-9.5h7.9l2.9,9.5h74.6l2.8-6.5h-14.4ZM42.45,41.8l1.9-4.3,1.3,4.3h-3.2ZM67.25,49.3l-7.1-23.4h17.4c-5.2,11.7-8.4,18.9-10.3,23.4ZM94.05,51.4h-8.2l11.1-25.5h8.2c-6,13.7-9.3,21.3-11.1,25.5Z"/>
  <path class="st0" d="M1.05,41.9c.2,4.1,1.9,8,4.9,10.9,3.2-2.7,5.1-6.7,5.3-10.9H1.05Z"/>
  <path class="st3" d="M12.65,41.9c-.2,4.5-2.2,8.8-5.6,11.8,2.7,2.2,6.1,3.5,9.5,3.6v-15.5h-3.9v.1Z"/>
  <path class="st0" d="M1.05,40.5h10.2c-.2-4.3-2.1-8.2-5.3-11-3,2.8-4.7,6.8-4.9,11Z"/>
  <path class="st3" d="M7.05,28.5c3.4,3,5.5,7.4,5.6,12h3.9v-15.6c-3.5.1-6.8,1.4-9.5,3.6Z"/>
  <path class="st0" d="M33.45,41.9h-10.2c.2,4.2,2.1,8.1,5.3,10.9,3-2.9,4.7-6.8,4.9-10.9Z"/>
  <path class="st1" d="M21.85,41.9h-3.9v15.4c3.5-.1,6.9-1.4,9.5-3.6-3.4-3-5.4-7.3-5.6-11.8Z"/>
  <path class="st1" d="M27.55,28.5c-2.7-2.2-6.1-3.5-9.5-3.7v15.6h3.9c.1-4.5,2.1-8.9,5.6-11.9Z"/>
  <path class="st0" d="M46.25,1.1l-14.4,33c-.9-1.7-2-3.3-3.4-4.7-3.2,2.8-5.1,6.8-5.3,11h10.2l10.4-23.9h30.5l6.7-15.4h-34.7Z"/>
  <path class="st1" d="M79.45,16.5l6.7-15.4h-2.8l-6.8,15.4h2.9Z"/>
  <path class="st0" d="M51.25,56.9h12.1l-10.9-36.4h-6.6l-16,36.4h4.8s1.8-4.1,4.2-9.5h9.4l3,9.5ZM40.85,42.9c1.2-2.7,2.4-5.6,3.6-8.3l2.5,8.3h-6.1Z"/>
  <path class="st1" d="M64.45,53.2l1.7-3.8-8.8-28.9h-2.8l9.9,32.7Z"/>
  <path class="st0" d="M106.85,52.4l14-31.9h-20.4l-2,4.4h8.3c-4.3,9.7-14,31.9-14,31.9h31.6l2-4.4h-19.5Z"/>
  <path class="st1" d="M85.15,50.4l13.1-29.9h-2.9l-13.1,29.9h2.9Z"/>
  <path class="st1" d="M112.86,50.4l13.1-29.9h-2.9l-13.1,29.9h2.9Z"/>
  <path class="st0" d="M93.15,20.5h-29.7l-2,4.4h17.6c-4.3,9.7-14,31.9-14,31.9h25.6l1.9-4.4h-13.4l14-31.9Z"/>
  <path class="st2" d="M91.55,14.2h-3.7l5.7-13h-2.8l-6,13.5c-.5,1,0,1.9,1.1,1.9h5.5c1.2-.1,2.2-.8,2.8-1.9l6-13.5h-2.8l-5.8,13Z"/>
  <path class="st2" d="M112.35,1.1h-9.7l-1.1,2.4h3.8l-5.7,13h2.7l5.8-13h3.2l1-2.4Z"/>
  <path class="st2" d="M116.25,5l-1.7,6.7h-2.6l4.3-6.7ZM119.35,1.1h-2.8l-10.4,15.4h2.6l1.6-2.4h3.7l-.5,2.4h2.8l3-15.4Z"/>
  <path class="st2" d="M131.76,1.1l-2.9,6.5h-3.7l2.9-6.5h-2.8l-6.8,15.4h2.7l2.9-6.5h3.8l-2.9,6.5h2.8l6.8-15.4h-2.8Z"/>
</svg>
